X: 24941
T: Maid I Never Forgot, The
R: reel
M: 4/4
K: Eminor
E3F G3A|BEeE dBcA|AGEF GAAG|dAfe dBAF|
E3A G3A|BEeE dBcA|AGEF GAAG|1 dBcA BAGF:|2 dBcA BE~E2||
|:~B3d ~e3E|gEfd edBA|~B3A GAAG|dBcA BAGF|
E2BE dEBE|~E2eE dBcA|AGEF GAAG|1 dBcA BE~E2:|2 dBcA BAGF||

